X: 39224
T: Tá Mo Chroí Trom
R: reel
M: 4/4
K: Gmajor
GE|D2EG B2gf|e>f ed B2AB|d2ef gedc|BG AG E2GE|
D2GA B2ed|dBAG g3e|dcBG AGED|DE GGG2||
Bc|d2eg g2fg|agfe d2ef|g3f e2 dc|BGAG E2GE|
D2EG G2gf|e>f ed B2ed|cBAG AGED|DE GG G2||

